X: 21
T:Clare Jig, The
T:Mug of Brown Ale, The
M:6/8
L:1/8
R:Jig
K:ADor
gf|:eAA fAA|gfg age|dBA ~G3|BGB dBd|!
eAA fAA|gfg age|dBd gdB|ABA A3:|!
efg ~a3|aba age|dBd ~g3|bag fed|!
efg ~a3|aba age|dBd gdB|ABA A3:|
